svgs/thin/snowman-head.svg

<svg xmlns="http://www.w3.org/2000/svg" viewBox="0 0 448 512"><!-- Font Awesome Pro 6.0.0-alpha2 by @fontawesome - https://fontawesome.com License - https://fontawesome.com/license (Commercial License) --><path d="M88 176C92.422 176 96 172.406 96 168V40C96 26.781 106.766 16 120 16H328C341.234 16 352 26.781 352 40V168C352 172.406 355.578 176 360 176S368 172.406 368 168V40C368 17.938 350.063 0 328 0H120C97.938 0 80 17.938 80 40V168C80 172.406 83.578 176 88 176ZM440 208H356.453H91.891H8C3.578 208 0 211.594 0 216S3.578 224 8 224H75.307C47.756 258.07 32 299.758 32 344C32 405.969 62.266 464.469 112.953 500.5C123.563 508.031 137.078 512 152.031 512H295.5C311.234 512 326.859 506.75 339.5 497.219C398.828 452.469 426.672 378.844 412.156 305.125C406.348 275.516 392.867 247.949 373.582 224H440C444.422 224 448 220.406 448 216S444.422 208 440 208ZM396.469 308.188C409.781 375.875 384.266 443.406 329.875 484.469C319.984 491.906 307.781 496 295.5 496H152.031C143.922 496 132.172 494.531 122.219 487.438C75.75 454.438 48 400.812 48 344C48 299.188 64.781 256.719 95.328 224H353.016C375.328 248 390.328 277.031 396.469 308.188ZM144 320C135.164 320 128 312.836 128 304S135.164 288 144 288C152.838 288 160 295.164 160 304S152.838 320 144 320ZM304 320C295.164 320 288 312.836 288 304S295.164 288 304 288C312.838 288 320 295.164 320 304S312.838 320 304 320ZM224 336C197.533 336 176 357.531 176 384C176 404.527 200.367 441.961 210.842 457.105C213.832 461.422 218.748 464 224 464S234.17 461.422 237.158 457.105C247.635 441.961 272 404.527 272 384C272 357.531 250.467 336 224 336ZM224 448C224 448 192 401.75 192 384S206.25 352 224 352S256 366.25 256 384S224 448 224 448Z"/></svg>

<svg xmlns="http://www.w3.org/2000/svg" viewBox="0 0 448 512"><!--! Font Awesome Pro 6.0.0-alpha3 by @fontawesome - https://fontawesome.com License - https://fontawesome.com/license (Commercial License) --><path d="M88 176c4.422 0 8-3.594 8-8v-128c0-13.22 10.77-24 24-24h208c13.23 0 24 10.78 24 24v128c0 4.406 3.578 8 8 8s8-3.594 8-8v-128c0-22.06-17.94-40-40-40h-208c-22.06 0-40 17.94-40 40v128C80 172.4 83.58 176 88 176zM440 208H8c-4.422 0-8 3.594-8 8S3.578 224 8 224H75.31c-27.55 34.07-43.31 75.76-43.31 120c0 61.97 30.27 120.5 80.95 156.5C123.6 508 137.1 512 152 512h143.5c15.73 0 31.36-5.25 44-14.78c59.33-44.75 87.17-118.4 72.66-192.1C406.3 275.5 392.9 247.9 373.6 224h66.42c4.422 0 8-3.594 8-8S444.4 208 440 208zM396.5 308.2c13.31 67.69-12.2 135.2-66.59 176.3C319.1 491.9 307.8 496 295.5 496H152c-8.109 0-19.86-1.469-29.81-8.562C75.75 454.4 48 400.8 48 344c0-44.81 16.78-87.28 47.33-120h257.7C375.3 248 390.3 277 396.5 308.2zM144 320c-8.836 0-16-7.164-16-16s7.164-16 16-16c8.838 0 16 7.164 16 16S152.8 320 144 320zM304 320c-8.836 0-16-7.164-16-16s7.164-16 16-16c8.838 0 16 7.164 16 16S312.8 320 304 320zM224 336c-26.47 0-48 21.53-48 48c0 20.53 24.37 57.96 34.84 73.1C213.8 461.4 218.7 464 224 464s10.17-2.584 13.16-6.9C247.6 441.1 272 404.5 272 384C272 357.5 250.5 336 224 336zM224 448c0 0-32-46.25-32-64s14.25-32 31.1-32s32 14.25 32 32S224 448 224 448z"/></svg>
